!!!OTL: DER LIEBSTE BUHLE
!!!ARE: Europa, Mitteleuropa, Deutschland
!!!SCT: F0556
!!!YEM: Copyright 1995, estate of Helmut Schaffrath.
**kern
*ICvox
*Ivox
*M6/8
*k[f#]
*G:
{8b
=1
4b
8b
8b
8cc
8dd
=2
4g
8g
4g}
{8b
=3
4a
8a
8a
8b
8cc#
=4
4.ee
4dd}
{8b
=5
4b
8b
8b
8cc
8dd
=6
4g
8g
4g}
{8b
=7
4a
8a
8a
8b
8cc#
=8
4.ee
4dd}
{8dd
=9
4dd
8b
4g#
8e
=10
4a
8b
4cc}
{8cc
=11
4cc
8a
4f#
8d
=12
4g
8b
4dd}
{8dd
=13
4.ee
4.dd
=14
4.cc
4b}
{8b
=15
4.cc
4.a
=16
4.g
4r}
==
!!!AGN: Studenten -, Trink - Lied
!!!ONB: ESAC (Essen Associative Code) Database: FINK
!!!AMT: compound duple
!!!AIN: vox
!!!EED: Helmut Schaffrath
!!!EEV: 1.0
*-
